X: 1421
T: Even Quadrille
B: australian traditional tunes wiki
M:4/4
L:1/8
R: Reel
Q: 1/4=100
K:G
V:1 
dc|"G"B2d2B2G2|"C"E2F2G2FE|"G"D2G2A2B2|"D"A6dc|"G"B2d2B2G2|"C"E2F2G2FE|"D"D2D2E2F2|"G"G8|
"G"G4B2d2|"C"e4c2e2|"G"d2B2A2G2|"D7"[A4c4]B2A2|"G"G4B2d2|"C"e4c2e2|"G"d2B2"D"A2B2|"G"G6||
% abcbook-tune_id 6342d53ae6dbb7f194b0bf68


% abcbook-boost 0
% abcbook-tablature 
% abcbook-transpose 
% abcbook-lastupdated 1665324364295
% abcbook-soundfonts 
% abcbook-repeats 1
% NFF Book 2017

